X: 5
T: The Cliffs Of Moher
R: jig
M: 6/8
L: 1/8
K: Ador
|:a3 bag| eaf ged| c2A BAG| EFG ABd|
efe ded| cec BeB| GAB dBA| EFG |


Tune 12	Setting 23642

